X: 28407
T: Mulhaire's
R: reel
M: 4/4
K: Gmajor
B,2DB, G,B,DB,|C2EC GCEG|FADF ADFD|GFGA BGDC|
B,2DB, G,B,DB,|CE~E2 GE~E2|FGAB cDFA|1 AGGF GEDC:|2 AGGF GABc||
|:d2BG dGBG|DGBG dGBG|AGAB cBcd|eA~A2 eAcA|
d2BG dGBG|DGBG AGED|B,2DB, CEGE|DB,A,B, G,4:|

